image/logo.svg

<svg width="115" height="30" viewBox="0 0 115 30" fill="none" xmlns="http://www.w3.org/2000/svg">
<path d="M14.4155 0.627839C13.6165 1.19247 12.3381 1.18182 10.5909 1.18182C10.1754 1.18182 9.73864 1.17116 9.26989 1.18182C3.31463 1.23508 0.203835 4.96378 0.203835 12.8473V14.1896C0.203835 20.1342 3.27202 23.3196 8.22585 23.3196C13.169 23.3196 16.2266 20.1342 16.2266 15.1378C16.2266 10.3438 13.4247 7.47798 9.24858 7.47798C6.61719 7.47798 4.84872 8.6179 3.86861 10.6207H3.70881C4.09233 6.6044 5.62642 4.95312 9.41903 4.91051C12.7749 4.85724 14.4048 4.74006 15.8004 3.58949L14.4155 0.627839ZM8.24716 19.804C6.10582 19.804 4.81676 18.0781 4.81676 15.2869C4.83807 12.4957 6.11648 10.919 8.22585 10.919C10.3246 10.919 11.6136 12.4957 11.6136 15.2869C11.6136 18.0888 10.3246 19.804 8.24716 19.804ZM16.8525 29.1364H21.3908L22.8397 20.3793H22.9995C23.4043 21.7429 24.5123 23.2663 27.1543 23.2663C30.883 23.2663 34.2921 20.3153 35.1976 14.8395C36.1245 9.21449 33.5676 6.4233 29.9775 6.4233C27.2395 6.4233 25.6309 8.05327 24.8212 9.38494H24.6294L25.0769 6.63636H20.6025L16.8525 29.1364ZM23.6813 14.8182C24.15 11.8991 25.7161 10.0348 27.9107 10.0348C30.1586 10.0348 31.0108 11.9844 30.5634 14.8182C30.0627 17.6733 28.5605 19.6548 26.3233 19.6548C24.1394 19.6548 23.2125 17.7372 23.6813 14.8182ZM45.6167 23.3196C50.5811 23.3196 53.6706 19.9212 53.6706 14.8821C53.6706 9.81108 50.5811 6.4233 45.6167 6.4233C40.6522 6.4233 37.5627 9.81108 37.5627 14.8821C37.5627 19.9212 40.6522 23.3196 45.6167 23.3196ZM45.638 19.804C43.3475 19.804 42.1756 17.7053 42.1756 14.8501C42.1756 11.995 43.3475 9.88565 45.638 9.88565C47.8858 9.88565 49.0577 11.995 49.0577 14.8501C49.0577 17.7053 47.8858 19.804 45.638 19.804ZM62.3425 6.63636H58.0172L55.29 23H59.6152L60.6912 16.576H66.2843L65.2083 23H69.5123L72.2395 6.63636H67.9355L66.8702 13.0071H61.2772L62.3425 6.63636ZM79.4439 6.63636H74.9162L72.1889 23H76.7166L77.7713 16.7038H80.3175C80.3281 20.6562 82.7145 23.3196 86.9439 23.3196C91.8018 23.3196 95.392 19.7933 96.223 14.8288C97.0433 9.86435 94.6143 6.4233 89.7564 6.4233C85.4737 6.4233 82.1818 9.08665 80.8928 13.103H78.3679L79.4439 6.63636ZM87.5618 19.6548C85.0263 19.6548 84.3018 17.652 84.7812 14.8288C85.2393 12.0057 86.6136 10.0348 89.1491 10.0348C91.6634 10.0348 92.3558 12.027 91.8977 14.8288C91.4396 17.62 90.076 19.6548 87.5618 19.6548ZM103.643 17.0128V6.63636H99.3072V23H103.814L109.684 12.5916V23H114.009V6.63636H109.534L103.643 17.0128ZM108.757 0.926135C108.757 1.92756 108.16 2.8331 106.647 2.8331C105.092 2.8331 104.517 1.90625 104.527 0.926135H101.385C101.385 3.50426 103.419 5.23011 106.647 5.23011C109.875 5.23011 111.91 3.50426 111.921 0.926135H108.757Z" fill="black"/>
</svg>

<svg width="115" height="30" fill="none" xmlns="http://www.w3.org/2000/svg"><path d="M14.415.628c-.798.564-2.077.554-3.824.554-.416 0-.852-.01-1.321 0C3.315 1.235.204 4.964.204 12.847v1.343c0 5.944 3.068 9.13 8.022 9.13 4.943 0 8-3.186 8-8.182 0-4.794-2.801-7.66-6.977-7.66-2.632 0-4.4 1.14-5.38 3.143h-.16c.383-4.017 1.917-5.668 5.71-5.71 3.356-.054 4.986-.17 6.381-1.322L14.415.628zM8.247 19.804c-2.141 0-3.43-1.726-3.43-4.517.021-2.791 1.3-4.368 3.409-4.368 2.099 0 3.388 1.577 3.388 4.368 0 2.802-1.29 4.517-3.367 4.517zm8.605 9.332h4.539l1.449-8.757H23c.404 1.364 1.512 2.887 4.154 2.887 3.729 0 7.138-2.95 8.044-8.426.926-5.626-1.63-8.417-5.22-8.417-2.739 0-4.347 1.63-5.157 2.962h-.192l.448-2.749h-4.475l-3.75 22.5zm6.83-14.318c.468-2.919 2.034-4.783 4.229-4.783 2.248 0 3.1 1.95 2.652 4.783-.5 2.855-2.002 4.837-4.24 4.837-2.184 0-3.11-1.918-2.642-4.837zm21.935 8.502c4.964 0 8.054-3.399 8.054-8.438 0-5.07-3.09-8.459-8.054-8.459-4.965 0-8.054 3.388-8.054 8.46 0 5.038 3.09 8.437 8.054 8.437zm.021-3.516c-2.29 0-3.462-2.099-3.462-4.954 0-2.855 1.171-4.964 3.462-4.964 2.248 0 3.42 2.109 3.42 4.964 0 2.855-1.172 4.954-3.42 4.954zM62.343 6.636h-4.326L55.29 23h4.325l1.076-6.424h5.593L65.208 23h4.304L72.24 6.636h-4.304l-1.066 6.371h-5.593l1.066-6.37zm17.1 0h-4.527L72.19 23h4.528l1.054-6.296h2.546c.011 3.952 2.398 6.616 6.627 6.616 4.858 0 8.448-3.527 9.279-8.491.82-4.965-1.609-8.406-6.467-8.406-4.282 0-7.574 2.664-8.863 6.68h-2.525l1.076-6.467zm8.119 13.019c-2.536 0-3.26-2.003-2.78-4.826.457-2.823 1.832-4.794 4.367-4.794 2.514 0 3.207 1.992 2.749 4.794-.458 2.791-1.822 4.826-4.336 4.826zm16.081-2.642V6.636h-4.336V23h4.507l5.87-10.408V23h4.325V6.636h-4.475l-5.891 10.377zM108.757.926c0 1.002-.597 1.907-2.11 1.907-1.555 0-2.13-.927-2.12-1.907h-3.142c0 2.578 2.034 4.304 5.262 4.304 3.228 0 5.263-1.726 5.274-4.304h-3.164z" fill="#000"/></svg>
